X:71
T:Cul Aodh Jig (The Tea Song; Buttons & Bows)
M:6/8
L:1/8
S:(fr: Nightingale)
P:2
K:AMaj
a||:{b}age dBe |~A3 c2 d |edc dBA |GEE dcB |~A3 AGA |B3 gab |age dBe
|1 AB/2A/2A A2 a:||2 AB/2A/2A Acd ||e2a {b}aga |bef gab |age (d3 |d)BA G
AB
|A2a aga |bef gab |age dBe |1 AB/2A/2A Acd :||2 AB/2A/2A A2 a||
